X:1
T:Handfull of Keys
T:Fats Waller
T:Edited from hand played midi file by Piotr Barcz
%%score ( 1 2 3 ) ( 4 5 6 7 )
L:1/8
Q:1/4=240
M:4/4
K:F
V:1 treble nm="Piano" snm="Pno."
V:2 treble 
V:3 treble 
V:4 bass nm="Piano" snm="Pno."
V:5 bass 
V:6 bass 
V:7 bass 
V:1
"^Swing" z [a'd''][g'c''][a'd''] [g'c''][d'g'][c'f'][ad'] | [gc'][ad'] [gc']2 [gc']2 z2 | %2
 z [e'a'][d'g'][ad'] [gc'][ea][dg][ea] | [dg][ea] .[dg]2 .[dg]2 z2 | %4
 .[cec'][cec'] z [cec'] [cfc']2 .[cfc']2 | .[_e^fc']2 [efc'][=egc'] z [cc'] z2 | %6
 [CEc][CEc] z .[CEc] [DFc]2 [_E^Fc]2 | .[EGc]2 z2 .[cebc']2 z2 | z cde fg a>b | %9
 [cc'][fa] z [fc'e'] z [f=bd'] z2 | z cde fgab | c'[dfb] z [f=be'] z [fbd']2 z | z cde fgab | %13
 c'[dfb] z [cea] z [Bdg] z [cac'] | fcde d/e/d ce | d/e/d .c .c2 [egbc']2 [cac'] | fcde fgab | %17
 c' .[cfa]2 .[fc'e']2 .[f=bd']3 | z cde fgab | c' .[dfb]2 .[f=be']2 .[f_abd']3 | z cde fgab | %21
 c' .[dfb]2 .[cea]2 .[Bdg]2 c | f/g/c G_A/=A/ [Bd]3 c | [Af]4 z [G^c^f]2 [cfa] | %24
 G[G^c^fa] z [cf] [=Be][cf] [Be]2 | [G^cea]3 A2 [cea]2 [=cd^f=bd'] | %26
 z .[cd^f=bd']2 .[cdfbd'] [cdfbd']2 [cdfbd']2 | [cd^f=bd']4- .[cdfbd'] [cf]2 [dg] | %28
 z .[dg]2 [dg] [=Be][dg] [Be]2 | [df=bd']2 [dfb] .[fa]2 [fg]3 | z e'd'e' (3d'e'd' c'b | %31
 (3aba ge (3ded c2 | z cde fgab | c' .[cfa]2 .[fc'e']2 .[f=bd']3 | z cde fgab | %35
 c' .[dfb]2 .[f=be']2 .[f_ad']3 | z cde fgab | c' .[dfb]2 .[cea]2 .[Bdg]2 [Acf] | %38
 z F[_Ec]d [D=B]c/[^C_B]/ [=CA]2 | [cc']4- .[cc'][cegbc'] z2 | z c'd'e' f'g'a'b' | %41
 .c''[c'f']/a'/- a'[f'c''e''] z [f'=b'd''] z2 | z c'd'e' f'g'a'b' | %43
 c'' .[c'e'b']2 .[g'c''e'']2 [f'=b'd''] z2 | z c'd'e' f'g'a'b' | %45
 c'' .[d'f'b']2 .[c'e'a']2 .[bd'g']2 [c'f'a'c''] | z c'd'e' d'/e'/d' c'e' | %47
 d'/e'/d' c'e' d'/e'/d' c'2 | z c'd'e' f'g'a'b' | c'' .[c'f'a']2 .[f'c''e'']2 .[f'=b'd'']3 | %50
 z c'd'e' f'g'a'b' | c'' .[c'e'b']2 .[g'c''e'']2 .[f'=b'd'']3 | z c'd'e' f'g'a'b' | %53
 c'' .[d'f'b']2 .[c'e'a']2 .[bd'g']2 c' | f'g_a=a c'[ebd'] c'2 | [af']4- .[af'] [=bd'g']2 ^c'' | %56
 =b'/^c''/b' a'a' ^f'/a'/f' e'e' | ^c'/e'/c' =ba [c'e'a']3 ^f' | e'/^f'/e' d'd' =b/d'/b aa | %59
 ^f/a/.f .e2 d [fad']2 g' | e'/g'/e' .d'c' =b/c'/b .ab | a/=b/a gb a/b/a ge' | %62
 d'/e'/d' c'b a/b/a ge | d/e/d .c2 c.[egbc'] z2 | z c'd'e' f'g'a'b' | %65
 c'' .[c'f'a']2 .[f'c''e'']2 .[f'=b'd'']3 | z c'd'e' f'g'a'b' | %67
 c'' .[c'e'b']2 .[f'c''e'']2 .[f'=b'd'']3 | z c'd'e' f'g'a'b' | %69
 c'' .[d'f'b']2 .[c'e'a']2 .[bd'g']2 c' | [af']/c'a/ g_a [bd'][egc'] z2 | [ac'f']4 z .F3 | %72
 .F .F3 ^F>_A .F2 | ^F2 F2 ._A2 z [=F=Af]- | [FAf][FAf] z .[FAf] .[FBf]2 [F_A=Bf]2 | %75
 [FAcf]2 z2 z [A,CF] z z/ G/ | B2 z2 z [cc']2 [^c_e^c']- | %77
 [cec'] [=c_egb]2 [^c^c'] [=c=c'][Bb] [Gg]2 | [dfbd']2 z2 [c_efgb]2 z [dfgb]- | %79
 [dfgb][fgb]/d/- d2 [Fc_ef]3 [Gg] | z z/ [cg]/- [cg][G^c]- [Gc][fd']bf | %81
 [^cf^c']2 [=ce=c'][^cf^c']- [cfc'] [=c_e=c']2 [Bb]- | [Bb] [dg]2 ^c df [=cg]2 | %83
 [Bdfb]4- .[Bdfb][Bdb] [Bb]>d | [Ada]4- [Ada] [Bd^fb]2 [cdfc'] | [cdc']2 ^f2- f [cdf]2 [Bgb] | %86
 [Bgb]3 ^c' [dd']b [c^f=c']2 | [d^f=bd']4- [dfbd'] g2 [eg_bc']- | [egbc'][bc']/[eg]/- [eg]g [db]4 | %89
 [cea]>[cea]- [cea][cea]- [cea][Beg]/d/- d2 | .[F,,F,]2 .[_E,,_E,]2 .[D,,D,]2 .[C,,C,]2 | %91
 [B,,,B,,]2 [A,,,A,,]2 [G,,,G,,]2 [F,,,F,,]2- | [F,,,F,,]2 B2 z [DFG]2 g | Bd e2 a [Beg]2 f | %94
 gc [_ef]>g [df]>f [^c=e]f | [c_e]4- [ce] [dfad']2 [^c^c']- | %96
 [cc'] [=cf_a=c']3- [cfac'] [^cfa^c']2 [dfad']- | %97
 [dfad'] [cf_ac']3- [cfac'] [^cfa^c']2 [d_egbd']- | [degbd'] [c-_egc'-]3 [cc']b z [degbd']- | %99
 [degbd'] [c_egc']3 z [^cegb^c']2 [=ceg=c']- | [cegc'] .[B_egb]3 [Begb]2 [^c^f^c']2 | %101
 [c_egc']4- [cegc']/ z/ [^c^f^c']2 [=cd=f=c']- | [cdfc'] [Bdfb]3 .[Bdfb]2 [_Adf_a]2 | %103
 a6 z [cgbc'] | [B_eb]3 g .[Beb]2 [Gfg]2 | [F^cf]2 [Bd]/g/[Fdf]- [Fdf] [F=c_e]2 B | %106
 [FBdf]2 [^ce]>g .[df][df][=c_e]f | [Bd]4 .[CEBc]2 z2 | z CDE FGAB | c[FA] z z/ e/- e3/2 z/ z2 | %110
 z cde fgab | c'2 z3/2 e'/- e'[f_a=bd'] z2 | z c'd'e' f'g'a'b' | %113
 [d'f'c'']>b'- b'[c'e'a'] z [bd'g'] z [c'a'c''] | f'>c' d'e' f'g'a'b' | %115
 c''[d'f'b'] z [c'e'a'] z [bd'g'] z2 | z cde fgab | c'[fa]/c/- c[fc'e'] z [f=bd'] z2 | %118
 z z/ c/ de fgab | c'[dfb] z e' z [f=bd'] z2 | z cde fgab | c'2 [dfb][cea] z2 z c | %122
 f2 _A=A c [GBd]2 c | [Af]F z F- F [=Bd^f]2 e | .a2 A2- A[^c^fa] z [cfa] | [^c^fa]6 z2 | %126
 z [B_e] [=B=e]>D [Ad] [Be]2 [Ad] | [=Be]>D [_B_e][=B=e]- [Be][Ad] z [Ad]- | %128
 [Ad] [Gg]2 [Ad] [Bg]4 | [=Bfg]2 z [Bfg]- [Bfg]2 z2 | z/ [GA]/[B=B]/c/- cC- C C2 C | _A2 A2 G4 | %132
 z [Acf]2 _A =Ac [Gd]2 | [Acf]3 [=Be] [F_Bd]3 d | BAB=B .c2 Gc | [Bd]4 z [d^fac']2 d' | %136
 [gb]de^f gab=b | c' [dfb]2 [cea]- [cea] [Bdg]2 e | f [FAc]2 [F_A=B]- [FAB] .[G_B]3 | %139
 [cc']4- [cc']/ z/ [cegbc'] z [a'c''d''] | [_a'^c''].[g'=c''] z [d'g'] [^c'^f'][=c'=f'] z [gd'] | %141
 [_a^c'][=a=c'] z [dg] [^c^f][=c=f] z [ea] | [_e_a][dg] z [gd'] [a^c'][=a=c'] z [e'a'] | %143
 [_e'_a'][d'g'] z [g'd''] [a'^c''][=a'=c''] z [d''a''] | %144
 [_e''_a''].[=e''g''] z [a'd''] [_a'^c''].[=a'=c''] z [e'a'] | %145
 [_e'_a'][d'g'] z [ad'] [_a^c']>[g=c'] z [c'g'] | [^c'^f'][d'=f'] z [gd'] [_ac'].[=a=c'] z [ae'] | %147
 [b_e'].[=bd'] z [e_bd'] z [ebc'] z [c'g'] | %148
 [^c'^f'][d'=f'] z [g'd''] [_a'^c''].[=a'=c''] z [=c'g'] | %149
 [^c'^f'][d'=f'] z [gd'] [_ac'][=a=c'] z [d'a'] | [_e'_a'][=e'g'] z [gd'] [_a^c'][=a=c'] z [da] | %151
 [_e_a][=eg] z [gd'] [a^c'][=a=c'] z [d'a'] | [_e'_a'][=e'g'] z [g'd''] a'[=a'c''] z [d'a'] | %153
 [_e'_a'][=e'g'] z [gd'] [_a^c'][=a=c'] z [cg] | [^c^f][d=f] z [Gd] [_Ac][=A=c] (3:2:2z2 f- | %155
 [Acf]2 z2 z [G^c^f]2 [=cfa]- | [cfa][^c^fa] z [=cfa] [=Be]2 [Be]2 | %157
 .[^c^fa]2 [cfa][=Be]- [Be][cf] .[Be]2 | z8 | z4 e4 | E[=Befg] z [Befg] z [Befg] z [Befg] | %161
 z [=Befg] z [Beg] G4 | z8 | z4 d4 | z2 [fac'd'f']2 z [fac'd'f'] z2 | %165
 [fac'd'f']2 z [fac'd'f'] z2 [fac'd'f']2 | z [fac'd'f'] z2 .[fac'd'f']2 z [fac'd'f'] | %167
 z2 [fac'd'f']2 z [fac'd'f'] z2 | .[fac'd'f']2 z _a =ad'a_a- | a[g_a] z2 [ga]f d2 | %170
 z z/ F,/ z F, z2 .[D_EF]2 | z F, z2 .[EFGB]2 z F, | z z/ F,/ z2 .[DFG_A]2 z2 | %173
 [B,EGc]4 A,_E- E<G | .d2 .d2 d4- | d4 z4 |] %176
V:2
 x8 | x8 | x8 | x8 | x8 | x8 | x8 | x8 | x8 | x8 | x8 | x8 | x8 | x8 | x8 | x8 | x8 | x8 | x8 | %19
 x8 | x8 | x8 | x8 | x8 | x8 | x8 | x8 | x8 | x8 | x8 | x8 | x8 | x8 | x8 | x8 | x8 | x8 | x8 | %38
 x8 | x8 | x8 | x8 | x8 | x8 | x8 | x8 | x8 | x8 | x8 | x8 | x8 | x8 | x8 | x8 | x8 | x8 | x8 | %57
 x8 | x8 | x8 | x8 | x8 | x8 | x8 | x8 | x8 | x8 | x8 | x8 | x8 | x8 | x8 | x8 | x8 | x8 | x8 | %76
 x2 B4 x2 | x8 | x8 | x8 | x8 | x8 | x8 | x8 | x8 | x8 | x8 | x8 | x8 | x8 | x8 | x8 | x8 | x8 | %94
 x8 | x8 | x8 | x8 | x5 .[^c_eg^c']3 | x8 | x8 | x8 | x8 | [Adf]4- [Adf]/ x/ [G=Bdg]2 x | x8 | x8 | %106
 x8 | x8 | x8 | x5 [F_A=Bd] x2 | x8 | x [degb] x6 | x8 | x8 | x8 | x8 | x8 | x8 | x8 | x8 | x8 | %121
 x4 [Bdg]4 | x G x6 | x8 | x8 | x4 G4- | x8 | x8 | x8 | x2 .A2 G4 | x8 | x8 | x8 | x8 | x8 | x8 | %136
 x8 | x8 | x7 [F=A]- | [FA]2 x6 | x8 | x8 | x8 | x8 | x8 | x8 | x8 | x8 | x8 | x8 | x8 | x8 | x8 | %153
 x8 | x15/2 c/- | x/4 F3/4-F x6 | x8 | x8 | x8 | x2 ^F6 | x8 | x8 | x8 | x2 G6 | x8 | x8 | x8 | %167
 x8 | x8 | x8 | x8 | x8 | x8 | x8 | x8 | x8 |] %176
V:3
 x8 | x8 | x8 | x8 | x8 | x8 | x8 | x8 | x8 | x8 | x8 | x8 | x8 | x8 | x8 | x8 | x8 | x8 | x8 | %19
 x8 | x8 | x8 | x8 | x8 | x8 | x8 | x8 | x8 | x8 | x8 | x8 | x8 | x8 | x8 | x8 | x8 | x8 | x8 | %38
 x8 | x8 | x8 | x8 | x8 | x8 | x8 | x8 | x8 | x8 | x8 | x8 | x8 | x8 | x8 | x8 | x8 | x8 | x8 | %57
 x8 | x8 | x8 | x8 | x8 | x8 | x8 | x8 | x8 | x8 | x8 | x8 | x8 | x8 | x8 | x8 | x8 | x8 | x8 | %76
 x8 | x8 | x8 | x8 | x8 | x8 | x8 | x8 | x8 | x8 | x8 | x8 | x8 | x8 | x8 | x8 | x8 | x8 | x8 | %95
 x8 | x8 | x8 | x8 | x8 | x8 | x8 | x8 | x8 | x8 | x8 | x8 | x8 | x8 | x8 | x8 | x8 | x8 | x8 | %114
 x8 | x8 | x8 | x8 | x8 | x8 | x8 | x8 | x8 | x8 | x8 | x8 | G2 x6 | x8 | x8 | x8 | x8 | x8 | x8 | %133
 x8 | x8 | x8 | x8 | x8 | x8 | x8 | x8 | x8 | x8 | x8 | x8 | x8 | x8 | x8 | x8 | x8 | x8 | x8 | %152
 x8 | x8 | x8 | x8 | x8 | x8 | x8 | E8- | x8 | x8 | x8 | E8 | x8 | x8 | x8 | x8 | x8 | x8 | x8 | %171
 x8 | x8 | x8 | x8 | x8 |] %176
V:4
 [CDFA]8 | z6 [CDFA]2 | [B,DEG]8 | z8 | .[CG].[CG] z [CG] [C_A]2 [CA]2 | [CA]2 [CA][CB] z .[CE]3 | %6
 [C,G,].[C,G,] z [C,G,] [C,_A,]2 [C,=A,]2 | .[C,B,]2 z2 .[C,,G,,C,]2 z2 | %8
 .[F,,C,A,]2 .[B,CEG]2 .C,,2 .[G,B,CE]2 | .[F,,A,]2 .[A,CF]2 .[A,,C]2 .[_A,,=B,]2 | %10
 .[G,,B,]2 .[G,B,CE]2 .C,,2 .[G,B,CE]2 | .[G,,B,]2 .[G,B,CE]2 .[_A,,=B,]2 .[_A,B,DF]2 | %12
 .[G,,B,]2 .[G,B,CE]2 .C,,2 .[G,B,CE]2 | .[G,,B,]2 .[G,B,DF]2 .C,,2 .[G,B,CE]2 | %14
 .[F,,A,]2 .[A,CF]2 .[A,,C]2 [_A,,=B,]2 | .[G,,B,]2 .[G,B,DF]2 .C,,2 .[G,B,CE]2 | %16
 .[F,,A,]2 .[B,CEG]2 .C,,2 .[G,B,CE]2 | .[F,,A,]2 .[A,CF]2 .[A,,C]2 .[_A,,=B,]2 | %18
 .[G,,B,]2 .[G,B,CE]2 .C,,2 .[G,B,CE]2 | .[G,,B,]2 .[G,B,CE]2 .[_A,,=B,]2 .[_A,B,DF]2 | %20
 .[G,,B,]2 .[G,B,CE]2 .C,,2 .[G,B,CE]2 | .[G,,B,]2 .[G,B,DF]2 .C,,2 .[G,B,CE]2 | %22
 .[F,,A,]2 .[A,CF]2 .C,,2 .[G,B,CE]2 | .[F,,A,]2 .[F,A,CD]2 .[F,,_A,]2 .[G,B,^C]2 | %24
 .[E,,G,]2 .[A,^CE]2 .A,,,2 .[G,A,CE]2 | .[E,,G,]2 .[G,A,^CE]2 .A,,,2 .[G,A,CE]2 | %26
 .[D,,^F,]2 .[F,A,D]2 .A,,,2 .[F,A,D]2 | .[D,,^F,]2 .[F,A,D]2 .A,,,2 .[F,A,D]2 | %28
 .[D,,F,]2 .[G,=B,DF]2 .G,,,2 .[G,B,DF]2 | .[D,,F,]2 .[G,=B,DF]2 .G,,,2 .[G,B,DF]2 | %30
 .[G,,E,B,]2 .[G,B,CE]2 .[_A,,=B,]2 .[_A,B,DF]2 | .[G,,E,B,]2 .[G,B,CE]2 .C,,2 .[G,B,CE]2 | %32
 .[F,,A,]2 .[A,CF]2 .C,,2 .[G,B,CE]2 | .F,,2 .[A,CF]2 .[A,,C]2 .[_A,,=B,]2 | %34
 .[G,,B,]2 .[G,B,CE]2 .C,,2 .[G,B,CE]2 | .[G,,B,]2 .[G,B,CE]2 .[_A,,=B,]2 .[_A,B,DF]2 | %36
 .[G,,B,]2 .[G,B,CE]2 .C,,2 .[G,B,CE]2 | .[G,,B,]2 .[G,B,DF]2 .C,,2 .[G,B,CE]2 | %38
 .[F,,A,]2 [A,,C]2 [_A,,=B,]2 [G,,_B,]2 | .[F,,A,]2 [F,,_A,]2 .[E,,G,]2 .[G,B,CE]2 | %40
 .F,,2 .[A,CF]2 .C,,2 .[G,B,CE]2 | .F,,2 .[A,CF]2 ._A,,2 .[_A,=B,DF]2 | %42
 .G,,2 .[G,B,CE]2 .F,,2 .[F,G,B,D]2 | .E,,2 .[G,B,CE]2 ._A,,2 .[_A,=B,DF]2 | %44
 .G,,2 .[G,B,CE]2 .F,,2 .[F,G,B,D]2 | .E,,2 .[G,B,CE]2 .C,,2 .[G,B,CE]2 | %46
 .[F,,A,]2 .[A,CF]2 .[A,,C]2 .[_A,,=B,]2 | .[G,,B,]2 .[G,B,CE]2 .C,,2 .[G,B,CE]2 | %48
 .F,,2 .[A,CF]2 .C,,2 .[G,B,CE]2 | .F,,2 .[A,CF]2 .[A,,C]2 .[_A,,=B,]2 | %50
 .[G,,B,]2 .[G,B,CE]2 .C,,2 .[G,B,CE]2 | .G,,2 .[G,CE]2 .F,,2 .[F,_A,=B,D]2 | %52
 .E,,2 .[E,G,B,C]2 .^F,,2 .[^F,A,C_E]2 | .G,,2 .[G,B,CE]2 .C,,2 .[G,B,CE]2 | %54
 .F,,2 .[A,CF]2 .C,,2 .[G,B,CE]2 | .F,,2 .[A,CF]2 .E,,2 .[E,_A,=B,D]2 | %56
 .A,,2 .[E,A,^C]2 .E,,2 .[E,_A,=B,D]2 | .^C,,2 .[A,^CE]2 .A,,,2 .[A,CEG]2 | %58
 .D,,2 .[^F,A,D]2 .A,,,2 .[G,A,^CE]2 | .D,,2 .[^F,A,D]2 .C,,2 .[F,A,D]2 | %60
 .=B,,,2 .[=B,DG]2 .^C,,2 .[G,_B,^CE]2 | .D,,2 .[G,=B,DF]2 .G,,,2 .[G,B,DF]2 | %62
 .C,,2 .[G,CE]2 .^F,,2 .[^F,A,C_E]2 | .G,,2 .[G,B,CE]2 .C,,2 .[G,B,CE]2 | %64
 .F,,2 .[A,CF]2 .B,,2 .[B,CEG]2 | .A,,2 .[A,CF]2 ._A,,2 .[_A,=B,DF]2 | %66
 .G,,2 .[G,B,CE]2 .F,,2 .[F,G,B,D]2 | .E,,2 .[G,B,CE]2 .^F,,2 .[^F,A,C_E]2 | %68
 .G,,2 .[G,B,CE]2 .F,,2 .[F,G,B,D]2 | .E,,2 .[G,B,CE]2 .C,,2 .[G,B,CE]2 | %70
 .F,,2 .[A,CF]2 .C,,2 .[G,B,CE]2 | [F,,F,]2 C,2 .F,,2 z2 | [F,A,-C]4 C4- | C8 | %74
 [F,C]C z [F,C] [F,^C]2 [F,D]2 | [F,_E]2 z2 [F,,F,]2 [F,A,CE]2 | %76
 [B,,B,]2 [A,,A,]2 [_A,,_A,]2 [A,B,DF]2 | .[G,,G,]2 .[G,B,C_E]2 [^F,,^F,]2 .[F,B,CE]2 | %78
 .[F,,F,]2 .[F,G,B,D]2 .[_E,,_E,]2 .[^F,B,C_E]2 | .[D,,D,]2 .[F,G,_A,B,D]2 .A,,2 .[F,=A,C_E]2 | %80
 .[B,,B,]2 [A,,A,]2 .[_A,,_A,]2 .[A,B,DF]2 | .[G,,G,]2 .[G,B,CE]2 .[^F,,^F,]2 .[F,B,C_E]2 | %82
 .[F,,F,]2 .[F,B,D]2 .[_E,,_E,]2 .[E,F,A,C]2 | .[D,,D,]2 .[F,B,D]2 .[D,,D,]2 .[F,B,D]2 | %84
 .[F,,F,]2 .[F,A,D]2 .[^F,,^F,]2 .[F,A,CD]2 | .[A,,A,]2 .[^F,A,CD]2 .[D,,D,]2 .[F,A,CD]2 | %86
 .[G,,G,]2 .[G,B,D]2 .[_E,,^F,]2 .[F,B,_E]2 | .[D,,F,]2 .[F,G,=B,D]2 .G,,,2 .[F,G,B,D]2 | %88
 .[G,,B,]2 .[G,B,CE]2 .C,,2 .[G,B,CE]2 | .[G,,B,]2 .[G,B,CE]2 .C,,2 .[G,B,CE]2 | %90
 z .F, z ._E, z .D, z .C, | z .B,, z .A,, z .G,, z2 | .B,,2 .[F,B,D]2 .F,,,2 .[F,B,D]2 | %93
 .[D,,F,]2 .[B,D]2 .[^C,,E,]2 .[G,B,^C]2 | .[C,,_E,]2 .[F,A,C_E]2 .F,,,2 .[F,A,CE]2 | %95
 .[C,,_E,]2 .[F,A,C_E]2 .F,,,2 .[F,A,CE]2 | [G,,B,]2 [^F,,A,]2 [G,,B,]2 [F,,-A,]2 | %97
 [F,,-F,,_A,-][F,,A,] [F,A,B,D]2 B,,,2 [F,A,B,D]2 | .[_E,,G,]2 .[B,_EG]2 .B,,,2 .[B,EG]2 | %99
 .[_E,,G,]2 .[G,B,C_E]2 .B,,,2 .[_A,B,DF]2 | .[_E,,G,]2 .[G,B,C_E]2 .B,,,2 .[_A,B,DF]2 | %101
 .[_E,,G,]2 .[G,B,C_E]2 .[E,,^F,]2 .[F,B,CE]2 | .[D,,F,]2 .[F,B,D]2 .F,,,2 .[F,B,D]2 | %103
 .[D,,F,]2 .[F,G,=B,D]2 .G,,,2 .[F,G,B,D]2 | [C,,G,,C,]2 .[D,,G,,D,]2 [_E,,B,,_E,]2 [=E,,B,,=E,]2 | %105
 .[F,,B,,F,]2 .[F,B,D]2 .F,,,2 .[F,A,C_E]2 | .B,,,2 .[F,B,D]2 .F,,,2 .[F,A,C_E]2 | %107
 [B,,,D,]4 [C,,G,,E,]2 z2 | [F,,,A,,]2 z2 .B,,2 .[B,CE]2 | %109
 .[A,,C]2 .[A,C]2 .[_A,,=B,]2 .[_A,B,D]2 | .[G,,B,]2 .[G,B,CE]2 .C,,2 .[G,B,CE]2 | %111
 .[G,,B,]2 .[B,CEG]2 .[_A,,=B,]2 .[_A,B,DF]2 | .[G,,B,]2 .[G,C_E]2 .F,,2 .[G,B,DF]2 | %113
 .E,,2 .[G,B,CE]2 .C,,2 .[G,B,CE]2 | .F,,2 .[A,CF]2 .^F,,2 .[A,C_E^F]2 | %115
 .G,,2 .[B,CEG]2 .C,,2 .[B,CEG]2 | .F,,2 .[A,CF]2 .C,,2 .[G,B,CE]2 | %117
 .F,,2 .[A,CF]2 ._A,,2 .[_A,=B,DF]2 | .G,,2 .[G,B,CE]2 .F,,2 .[G,B,CE]2 | %119
 .E,,2 .[G,B,CE]2 ._A,,2 .[_A,=B,DF]2 | .G,,2 .[G,B,CE]2 .F,,2 .[G,B,CE]2 | %121
 .E,,2 .[G,B,CE]2 .C,,2 .[G,B,CE]2 | .F,,2 .[A,CF]2 .C,,2 .[G,B,CE]2 | %123
 .F,,2 .[A,CF]2 .D,,2 .[_A,=B,DE]2 | .E,,2 .[G,A,^CE]2 .D,,2 .[G,A,CE]2 | %125
 .^C,,2 .[G,A,^CE]2 .A,,,2 .[G,A,CE]2 | .D,,2 .[^F,A,D]2 .A,,,2 .[F,A,D]2 | %127
 .D,,2 .[^F,A,D]2 .C,,2 .[F,A,D]2 | .B,,,2 .[G,=B,D]2 .^C,,2 .[G,_B,^C]2 | %129
 .D,,2 .[G,=B,D]2 .G,,2 .[G,B,DF]2 | .[C,C]2 z2 z4 | z4 z2 C,,2 | .F,,2 .[A,CF]2 .B,,2 .[B,CE]2 | %133
 A,,2 .[A,CF]2 ._A,,2 .[_A,=B,D]2 | G,,2 .[G,CE]2 F,,2 .[F,G,B,D]2 | %135
 E,,2 .[G,B,CE]2 ^F,,2 .[^F,A,D]2 | [G,,G,]2 .[A,,A,]2 [B,,B,]2 .[=B,,=B,]2 | %137
 [C,C]2 .[D,D]2 [C,C]2 .[B,,B,]2 | [A,,A,]2 [_E,_E]2 [D,-D]2 [^C,D,^C]2 | %139
 [C,C]2 [=B,,=B,]2 .[_B,,_B,]2 .[G,B,CE]2 | .[A,,A,]2 .[A,CF]2 .[C,,C,]2 .[A,CDF]2 | %141
 .[F,,F,]2 .[A,CF]2 .[^F,,^F,]2 .[A,C_E]2 | .[G,,G,]2 .[G,B,CE]2 .[F,,F,]2 .[F,A,CD]2 | %143
 .[E,,E,]2 .[G,B,CE]2 .[^F,,^F,]2 .[F,A,C_E]2 | .[G,,G,]2 .[G,B,CE]2 .[F,,F,]2 .[F,_A,=B,D]2 | %145
 .[E,,E,]2 .[G,B,CE]2 .[C,,C,]2 .[G,B,CE]2 | .[F,,F,]2 .[F,A,CD]2 .[D,,D,]2 .[^F,A,CD]2 | %147
 .[G,,,G,,]2 .[B,DG]2 .[C,,C,]2 .[B,CEG]2 | .[F,,F,]2 .[A,CF]2 .[C,,C,]2 .[A,CDF]2 | %149
 .[A,,A,]2 .[A,CF]2 .[_A,,_A,]2 .[A,=B,DF]2 | .[G,,G,]2 .[G,B,CE]2 .[F,,F,]2 .[F,_A,=B,D]2 | %151
 .[E,,E,]2 .[G,B,CE]2 .[^F,,^F,]2 .[F,A,C_E]2 | .[G,,G,]2 .[G,B,CE]2 .[F,,F,]2 .[F,_A,=B,D]2 | %153
 .[E,,E,]2 .[G,B,CE]2 .[C,,C,]2 .[G,B,CE]2 | .[F,,F,]2 .[A,CF]2 .[C,,C,]2 .[G,B,CE]2 | %155
 .[F,,F,]2 .[A,CF]2 .[D,,D,]2 .[G,A,^CE]2 | z2 .[G,A,^CE]2 z2 .[G,A,CE]2 | %157
 E,,2 .[G,A,^CE]2 z2 .[G,A,CE]2 | z4 ^F,4- | [D,,A,,F,C]6 [D,,^F,]2 | %160
 .[G,,F,]2 .[F,G,=B,D]2 .G,,2 .[F,G,B,D]2 | .[D,,F,]2 .[F,G,=B,D]2 .G,,2 .[F,G,B,D]2 | z4 E,4- | %163
 [C,,G,,E,B,]6 [E,,=B,,_A,]2 | .[F,,C,A,]2 .[A,CF]2 .C,,2 .[B,CEG]2 | %165
 .[F,,A,]2 .[A,CF]2 .[_A,,F,=B,]2 .[_A,B,D]2 | .G,,2 .[F,G,=B,D]2 .D,,2 .[^F,A,D]2 | %167
 [G,,G,]2 .[A,,A,]2 [B,,B,]2 .[=B,,=B,]2 | [C,C]2 .[^C,^C]2 [D,D]2 [=C,=C-]2 | %169
 [=B,,=B,C]2 .[B,DF]2 .[_B,,_B,]2 .[B,CEG]2 | .[F,,F,]2 .[E,,E,]2 .[_E,,_E,]2 .[A,C]2 | %171
 .[D,,D,]2 .[^C,,^C,]2 .[B,^C]2 .[C,,C,]2 | [C,,C,]2 [=B,,,=B,,]2 [_A,=B,]2 [B,,,B,,]2 | %173
 [C,,C,]4 [F,,F,]4- | [F,,F,]8- | [F,,F,]4 z4 |] %176
V:5
 x8 | x8 | x8 | x8 | x8 | x8 | x8 | x8 | x8 | x8 | x8 | x8 | x8 | x8 | x8 | x8 | x8 | x8 | x8 | %19
 x8 | x8 | x8 | x8 | x8 | x8 | x8 | x8 | x8 | x8 | x8 | x8 | x8 | x8 | x8 | x8 | x8 | x8 | x8 | %38
 x8 | x8 | x8 | x8 | x8 | x8 | x8 | x8 | x8 | x8 | x8 | x8 | x8 | x8 | x8 | x8 | x8 | x8 | x8 | %57
 x8 | x8 | x8 | x8 | x8 | x8 | x8 | x8 | x8 | x8 | x8 | x8 | x8 | x8 | x8 | %72
 x4 [E,-^F,-A,B,-]2 [E,F,B,]2- | [E,F,B,]6- [E,F,B,]-[E,=F,-F,B,C-] | x F,2 x5 | x8 | x8 | x8 | %78
 x8 | x8 | x8 | x8 | x8 | x8 | x8 | x8 | x8 | x8 | x8 | x8 | x8 | x8 | x8 | x8 | x8 | x8 | x8 | %97
 x8 | x8 | x8 | x8 | x8 | x8 | x8 | x8 | x8 | x8 | x8 | x8 | x8 | x8 | x8 | x8 | x8 | x8 | x8 | %116
 x8 | x8 | x8 | x8 | x8 | x8 | x8 | x8 | x8 | x8 | x8 | x8 | x8 | x8 | x8 | x8 | x8 | x8 | x8 | %135
 x8 | x8 | x8 | x8 | x8 | x8 | x8 | x8 | x8 | x8 | x8 | x8 | x8 | x8 | x8 | x8 | x8 | x8 | x8 | %154
 x8 | x8 | E,,4 A,,,4 | x4 A,,,4 | x6 C2- | x8 | x8 | x8 | x6 B,2- | x8 | x8 | x8 | x8 | x8 | x8 | %169
 x8 | x8 | x8 | x8 | x8 | x8 | x8 |] %176
V:6
 x8 | x8 | x8 | x8 | x8 | x8 | x8 | x8 | x8 | x8 | x8 | x8 | x8 | x8 | x8 | x8 | x8 | x8 | x8 | %19
 x8 | x8 | x8 | x8 | x8 | x8 | x8 | x8 | x8 | x8 | x8 | x8 | x8 | x8 | x8 | x8 | x8 | x8 | x8 | %38
 x8 | x8 | x8 | x8 | x8 | x8 | x8 | x8 | x8 | x8 | x8 | x8 | x8 | x8 | x8 | x8 | x8 | x8 | x8 | %57
 x8 | x8 | x8 | x8 | x8 | x8 | x8 | x8 | x8 | x8 | x8 | x8 | x8 | x8 | x8 | x8 | x8 | x8 | x8 | %76
 x8 | x8 | x8 | x8 | x8 | x8 | x8 | x8 | x8 | x8 | x8 | x8 | x8 | x8 | x8 | x8 | x8 | x8 | x8 | %95
 x8 | x8 | x8 | x8 | x8 | x8 | x8 | x8 | x8 | x8 | x8 | x8 | x8 | x8 | x8 | x8 | x8 | x8 | x8 | %114
 x8 | x8 | x8 | x8 | x8 | x8 | x8 | x8 | x8 | x8 | x8 | x8 | x8 | x8 | x8 | x8 | x8 | x8 | x8 | %133
 x8 | x8 | x8 | x8 | x8 | x8 | x8 | x8 | x8 | x8 | x8 | x8 | x8 | x8 | x8 | x8 | x8 | x8 | x8 | %152
 x8 | x8 | x8 | x8 | x8 | x8 | x2 A,,6- | x8 | x8 | x8 | x2 G,,6- | x8 | x8 | x8 | x8 | x8 | x8 | %169
 x8 | x8 | x8 | x8 | x8 | x8 | x8 |] %176
V:7
 x8 | x8 | x8 | x8 | x8 | x8 | x8 | x8 | x8 | x8 | x8 | x8 | x8 | x8 | x8 | x8 | x8 | x8 | x8 | %19
 x8 | x8 | x8 | x8 | x8 | x8 | x8 | x8 | x8 | x8 | x8 | x8 | x8 | x8 | x8 | x8 | x8 | x8 | x8 | %38
 x8 | x8 | x8 | x8 | x8 | x8 | x8 | x8 | x8 | x8 | x8 | x8 | x8 | x8 | x8 | x8 | x8 | x8 | x8 | %57
 x8 | x8 | x8 | x8 | x8 | x8 | x8 | x8 | x8 | x8 | x8 | x8 | x8 | x8 | x8 | x8 | x8 | x8 | x8 | %76
 x8 | x8 | x8 | x8 | x8 | x8 | x8 | x8 | x8 | x8 | x8 | x8 | x8 | x8 | x8 | x8 | x8 | x8 | x8 | %95
 x8 | x8 | x8 | x8 | x8 | x8 | x8 | x8 | x8 | x8 | x8 | x8 | x8 | x8 | x8 | x8 | x8 | x8 | x8 | %114
 x8 | x8 | x8 | x8 | x8 | x8 | x8 | x8 | x8 | x8 | x8 | x8 | x8 | x8 | x8 | x8 | x8 | x8 | x8 | %133
 x8 | x8 | x8 | x8 | x8 | x8 | x8 | x8 | x8 | x8 | x8 | x8 | x8 | x8 | x8 | x8 | x8 | x8 | x8 | %152
 x8 | x8 | x8 | x8 | x8 | x8 | D,,8- | x8 | x8 | x8 | C,,8- | x8 | x8 | x8 | x8 | x8 | x8 | x8 | %170
 x8 | x8 | x8 | x8 | x8 | x8 |] %176

